X:1
T: Aberlour House
C:
R:Strathspey
Q:128
K:Bb
M:4/4
L:1/16
|:DC|B,3D F3D B3c d3c|BAGF B3D C4 C2DC|B,3D F3D B3c d3c|BAGF d3c B4 B2DC|
B,3D F3D B3c d3c|BAGF B3D C4 C2DC|B,3D F3D B3c d3c|BAGF d3c B4 B2f2|
edcB f3B b3B f3B|d3B fgfd c4 c2f2|edcB f3B b3B f3d|GFED cdfd B4 B3f|
edcB f3B b3B f3B|dBdf gfed c4 c2dc|B3F d3f gfga b3g|f3d d'3c' b4 b2:|
